icons/desktop/16/svg/bike-16.svg

<svg width="16" height="16" viewBox="0 0 16 16" fill="none" xmlns="http://www.w3.org/2000/svg">
<path fill-rule="evenodd" clip-rule="evenodd" d="M10.0498 2C10.8535 2 11.5537 2.54764 11.748 3.32617L12.626 6.84961C12.6336 6.84956 12.6417 6.84961 12.6494 6.84961C14.4962 6.84983 16 8.35333 16 10.2002C15.9999 12.047 14.4972 13.5496 12.6494 13.5498C10.8025 13.5498 9.29895 12.0481 9.29883 10.2002C9.29883 8.8846 10.0607 7.7441 11.166 7.19629L11.1436 7.10742C10.0455 6.81881 9.08639 6.75004 8.38867 6.75C7.18881 6.75 6.18306 6.94982 5.44922 7.15625L5.31055 7.48633C6.15142 8.09558 6.7002 9.0849 6.7002 10.2002C6.70008 12.0471 5.19654 13.5498 3.34961 13.5498C1.50286 13.5496 0.000119175 12.048 0 10.2002C0 8.35233 1.50279 6.84982 3.34961 6.84961C3.54726 6.84961 3.74133 6.86739 3.92969 6.90039L4.00781 6.71484L3.99414 4.68457C3.80313 4.66067 3.60153 4.63113 3.39258 4.58887C3.16281 4.54269 3 4.33249 3 4.09863V3.40039C3 3.15939 3.16927 2.9552 3.40527 2.9082C3.85023 2.81922 4.3891 2.75 5 2.75C5.344 2.75 5.76147 2.77175 6.23047 2.84375C6.67326 2.91193 7 3.30114 7 3.75C7 4.207 6.66489 4.59018 6.21289 4.65918C5.99065 4.69251 5.75032 4.71675 5.49414 4.73242L5.5 5.59277C6.2774 5.40584 7.25719 5.25 8.38867 5.25C9.0111 5.25003 9.81621 5.29905 10.7373 5.47754L10.292 3.68945C10.2642 3.57817 10.164 3.5 10.0498 3.5H9.25C8.83579 3.5 8.5 3.16421 8.5 2.75C8.5 2.33579 8.83579 2 9.25 2H10.0498ZM3.31641 8.35059C2.31184 8.36857 1.5 9.19142 1.5 10.2002C1.50012 11.22 2.32986 12.0496 3.34961 12.0498C4.36954 12.0498 5.20008 11.2201 5.2002 10.2002C5.2002 9.71149 5.00794 9.26761 4.69727 8.93652L4.04004 10.4922C3.87861 10.8734 3.43901 11.0519 3.05762 10.8906C2.67639 10.7292 2.49809 10.2896 2.65918 9.9082L3.31641 8.35059ZM13.3779 9.86621C13.4781 10.2681 13.233 10.6752 12.8311 10.7754C12.4292 10.8754 12.022 10.6313 11.9219 10.2295L11.5449 8.71777C11.0929 9.0554 10.7988 9.59393 10.7988 10.2002C10.7989 11.2201 11.6295 12.0498 12.6494 12.0498C13.6692 12.0496 14.4999 11.22 14.5 10.2002C14.5 9.3032 13.858 8.5536 13.0088 8.38574L13.3779 9.86621Z" fill="black"/>
</svg>

<!-- This Source Code Form is subject to the terms of the Mozilla Public
   - License, v. 2.0. If a copy of the MPL was not distributed with this
   - file, You can obtain one at http://mozilla.org/MPL/2.0/. -->
<svg xmlns="http://www.w3.org/2000/svg" width="16" height="16" fill="context-fill" fill-opacity="context-fill-opacity" viewBox="0 0 16 16">
    <path fill-rule="evenodd" d="M10.05 2a1.75 1.75 0 0 1 1.698 1.326l.878 3.524h.023A3.355 3.355 0 0 1 16 10.2a3.354 3.354 0 0 1-3.35 3.35 3.354 3.354 0 0 1-3.351-3.35c0-1.315.762-2.456 1.867-3.004l-.022-.089a10.9 10.9 0 0 0-2.755-.357c-1.2 0-2.206.2-2.94.406l-.138.33A3.348 3.348 0 0 1 3.35 13.55 3.353 3.353 0 0 1 0 10.2a3.354 3.354 0 0 1 3.93-3.3l.078-.185-.014-2.03a8 8 0 0 1-.601-.096.5.5 0 0 1-.393-.49V3.4a.5.5 0 0 1 .405-.492 8.1 8.1 0 0 1 2.825-.064c.443.068.77.457.77.906a.92.92 0 0 1-.787.91 8 8 0 0 1-.719.072l.006.86a12.4 12.4 0 0 1 2.889-.342c.622 0 1.427.05 2.348.228l-.445-1.789a.25.25 0 0 0-.242-.189h-.8a.75.75 0 0 1 0-1.5zM3.316 8.35A1.85 1.85 0 0 0 1.5 10.2c0 1.02.83 1.85 1.85 1.85s1.85-.83 1.85-1.85c0-.489-.192-.932-.503-1.263l-.657 1.555a.75.75 0 0 1-1.38-.584zm10.062 1.516a.75.75 0 0 1-1.456.364l-.377-1.512a1.848 1.848 0 0 0 1.104 3.332c1.02 0 1.85-.83 1.851-1.85 0-.897-.642-1.646-1.491-1.814z" clip-rule="evenodd" />
</svg>
